X:66
T:Scotch Air,A. RH.066
T:My Love is But a Lassie Yet,aka. RH.066
R:Reel
S:Rev.R.Harrison’s MS,c1815,Cumbria
O:England
A:Temple Sowerby,Cumbria
Z:vmp.Simon Wilson. Review PJH, 2008.
M:C|
L:1/8
Q:1/2=60
K:D
B/c/|dDFD dDD B/c/|dDFD BEE B/c/|!
dDFD dgf>e|d/c/B/A/ Bc dDD:|!
|:f/g/|afgf fdd f/g/|afgf eEE f/g/|!
afge fdec|d/c/B/A/ Bc dDD:|

